X:1
T:Sine Bhan ( Fair Jean )  "CYMRU"
M:6/8
L:1/8
Q:80
C:Arr. P/M A. MacDonald, Scots Guards
S:Slow March
K:HP
|: e | \
{g}A2{GAG}A{g}B{GdG}c2 | \
{gfg}f2{g}e{A}e3 | \
{gcd}c2{e}B{g}cf2 |
{gef}e2c{gBG}B3:|2  | \
{g}A2{GAG}A{g}B{GdG}c2 | \
{gfg}f2{g}e{A}e3 |
{g}A2{e}A{g}c2{e}c | \
{gBd}B2{e}A{GAG}A3 :: \
{g}A2{GAG}A{g}B{GdG}c2 |
{ag}a2f{gef}e3 | \
{ag}a2f{gfg}fe2 | \
{ag}a2c{gBG}B3|1 |
{g}A2{GAG}A{g}B{GdG}c2 | \
{ag}a2f{gfg}fe2 | \
{g}A2{e}A{g}c2{e}c |
{gBd}B2{e}A{GAG}A3 :|
